X:1
T:The Zebra Dun
M:4/4
L:1/8
K:C
 z4 z2 GG| C2 CC E2 EE| D3.99999962500005/5.99999925000009 D3.99999962500005/5.99999925000009 D3.99999962500005/5.99999925000009 DB, C2 z C/2C/2|\
 C2 EG c2 GG| AA FA G2 G3/2 G/2| cc cc cc G/2G/2 G| AA FA G2 GE| CC CD E2 G2|\
 DD DE C2 z2|
